apps/app.mento.org/public/tokens/cCHF.svg

<svg width="40" height="40" viewBox="0 0 40 40" fill="none" xmlns="http://www.w3.org/2000/svg">
<g clip-path="url(#clip0_4059_20122)">
<path d="M20 40C31.0457 40 40 31.0457 40 20C40 8.95431 31.0457 0 20 0C8.95431 0 0 8.95431 0 20C0 31.0457 8.95431 40 20 40Z" fill="#7005FC"/>
<path d="M19.4457 30.7624C14.9865 30.7624 11.3417 27.1184 11.3417 22.6584C11.3417 19.4936 13.1641 16.712 15.8489 15.4176V12.4928C11.6769 13.9792 8.65613 17.9592 8.65613 22.6584C8.65613 28.6048 13.4993 33.448 19.4457 33.448C24.1449 33.448 28.1249 30.4272 29.6113 26.2552H26.6865C25.3921 28.9408 22.6105 30.7624 19.4457 30.7624Z" fill="#FCFBFF"/>
<path d="M21.106 22.8786V6.58734H31.2085V8.70329H23.564V13.667H30.4846V15.775H23.564V22.8786H21.106ZM18.6719 20.0785V18.4319H25.9822V20.0785H18.6719Z" fill="#FCFBFF"/>
<path d="M19.4457 30.7624C14.9865 30.7624 11.3417 27.1184 11.3417 22.6584C11.3417 19.4936 13.1641 16.712 15.8489 15.4176V12.4928C11.6769 13.9792 8.65613 17.9592 8.65613 22.6584C8.65613 28.6048 13.4993 33.448 19.4457 33.448C24.1449 33.448 28.1249 30.4272 29.6113 26.2552H26.6865C25.3921 28.9408 22.6105 30.7624 19.4457 30.7624Z" fill="#FCFBFF"/>
<path d="M21.1741 22.7338V6.73383H31.0959V8.81195H23.5881V13.687H30.385V15.7573H23.5881V22.7338H21.1741ZM18.7834 19.9838V18.3666H25.9631V19.9838H18.7834Z" fill="#FCFBFF"/>
</g>
<defs>
<clipPath id="clip0_4059_20122">
<rect width="40" height="40" fill="white"/>
</clipPath>
</defs>
</svg>

<svg xmlns="http://www.w3.org/2000/svg" width="40" height="40" fill="none" viewBox="0 0 40 40"><g clip-path="url(#a)"><path fill="#7005FC" d="M20 40c11.046 0 20-8.954 20-20S31.046 0 20 0 0 8.954 0 20s8.954 20 20 20"/><path fill="#FCFBFF" d="M19.446 30.762c-4.46 0-8.104-3.644-8.104-8.104 0-3.164 1.822-5.946 4.507-7.24v-2.925c-4.172 1.486-7.193 5.466-7.193 10.165 0 5.947 4.843 10.79 10.79 10.79 4.699 0 8.679-3.02 10.165-7.193h-2.925c-1.294 2.686-4.076 4.507-7.24 4.507"/><path fill="#FCFBFF" d="M21.106 22.879V6.587h10.103v2.116h-7.645v4.964h6.92v2.108h-6.92v7.104zm-2.434-2.8v-1.647h7.31v1.646z"/><path fill="#FCFBFF" d="M19.446 30.762c-4.46 0-8.104-3.644-8.104-8.104 0-3.164 1.822-5.946 4.507-7.24v-2.925c-4.172 1.486-7.193 5.466-7.193 10.165 0 5.947 4.843 10.79 10.79 10.79 4.699 0 8.679-3.02 10.165-7.193h-2.925c-1.294 2.686-4.076 4.507-7.24 4.507"/><path fill="#FCFBFF" d="M21.174 22.734v-16h9.922v2.078h-7.508v4.875h6.797v2.07h-6.797v6.977zm-2.39-2.75v-1.617h7.18v1.617z"/></g><defs><clipPath id="a"><path fill="#fff" d="M0 0h40v40H0z"/></clipPath></defs></svg>
